icons/boy_1015y_fill.svg

<svg width="48" height="48" viewBox="0 0 48 48" fill="none" xmlns="http://www.w3.org/2000/svg">
<path fill-rule="evenodd" clip-rule="evenodd" d="M18 18.5C18 17.6716 18.6716 17 19.5 17H28.5C29.3284 17 30 17.6716 30 18.5C30 18.6753 29.9699 18.8436 29.9146 19H30V19.0336C32.25 19.3376 34 21.669 34 24.5C34 27.331 32.25 29.6624 30 29.9664V40C30 41.0616 29.1706 41.9382 28.1106 41.9969C27.0506 42.0556 26.1295 41.276 26.0122 40.2209L25.2099 33H22.8906L21.9846 40.2481C21.8535 41.2962 20.93 42.0618 19.8757 41.9961C18.8215 41.9305 18 41.0563 18 40V29.9664C15.75 29.6624 14 27.331 14 24.5C14 21.669 15.75 19.3376 18 19.0336V19H18.0854C18.0301 18.8436 18 18.6753 18 18.5ZM20.331 23.6795C20.8089 22.6927 20.9929 21.1497 20.9929 19H22.9929C22.9929 21.158 22.8266 23.115 22.1311 24.5512C21.77 25.2968 21.2541 25.93 20.5303 26.3677C19.8106 26.803 18.9598 27 18 27V25C18.6863 25 19.1577 24.8605 19.4953 24.6563C19.8288 24.4546 20.1054 24.1455 20.331 23.6795ZM27.0071 19C27.0071 21.1497 27.1911 22.6927 27.669 23.6795C27.8946 24.1455 28.1712 24.4546 28.5047 24.6563C28.8423 24.8605 29.3137 25 30 25V27C29.0402 27 28.1894 26.803 27.4697 26.3677C26.7459 25.93 26.23 25.2968 25.8689 24.5512C25.1734 23.115 25.0071 21.158 25.0071 19H27.0071Z" fill="black"/>
<path d="M28.5 10.5C28.5 12.9853 26.4853 15 24 15C21.5147 15 19.5 12.9853 19.5 10.5C19.5 8.01472 21.5147 6 24 6C26.4853 6 28.5 8.01472 28.5 10.5Z" fill="black"/>
</svg>

<svg
  xmlns="http://www.w3.org/2000/svg"
  width="24"
  height="24"
  viewBox="0 0 24 24"
  fill="none"
  stroke="currentColor"
  stroke-width="2"
  stroke-linecap="round"
  stroke-linejoin="round"
>
  <path
    fill-rule="evenodd"
    d="M18 18.5a1.5 1.5 0 0 1 1.5-1.5h9a1.5 1.5 0 0 1 1.415 2H30v.034c2.25.304 4 2.635 4 5.466s-1.75 5.162-4 5.466V40a2 2 0 0 1-3.988.22L25.21 33h-2.32l-.905 7.248A2 2 0 0 1 18 40V29.966c-2.25-.304-4-2.635-4-5.466s1.75-5.162 4-5.466V19h.085a1.5 1.5 0 0 1-.085-.5m2.331 5.18c.478-.987.662-2.53.662-4.68h2c0 2.158-.166 4.115-.862 5.551-.361.746-.877 1.379-1.6 1.817-.72.435-1.571.632-2.531.632v-2c.686 0 1.158-.14 1.495-.344.334-.201.61-.51.836-.976M27.007 19c0 2.15.184 3.693.662 4.68.226.465.502.775.836.976.337.204.809.344 1.495.344v2c-.96 0-1.81-.197-2.53-.632-.724-.438-1.24-1.071-1.601-1.817-.696-1.436-.862-3.393-.862-5.551z"
    clip-rule="evenodd"
  />
  <path d="M28.5 10.5a4.5 4.5 0 1 1-9 0 4.5 4.5 0 0 1 9 0" />
</svg>
